X: 881
T: Alexander , The
R: polka
M: 2/4
K: Gmajor
dB gB|dc/B/ c/e/A|cg Af|ag/f/ g/b/d|
dB gB|dc/B/ c/e/A|cA af/a/|gg g z||
ec ce|d/e/d db|c/d/c cg|B/c/d db|
ec ca|d/e/d db|c/d/ ca/f/|gg g z||
B/c/d ed|gB ed|B/c/d ed|Bd A2|
B/c/d ed|gB ed|B/c/d ed|ef g2||

